common/src/main/resources/icons/plugins/ui/toolbar.svg

<svg xmlns="http://www.w3.org/2000/svg" width="16" height="16" data-big="true"><path fill="none" stroke="#A1887F" stroke-miterlimit="1.414" d="M1 5h14v6H1zm2 2v2h2V7zm4 0v2h2V7zm4 0v2h2V7z"/></svg>

<!--
  - The MIT License (MIT)
  -
  - Copyright (c) 2015-2024 Elior "Mallowigi" Boukhobza
  -
  - Permission is hereby granted, free of charge, to any person obtaining a copy
  - of this software and associated documentation files (the "Software"), to deal
  - in the Software without restriction, including without limitation the rights
  - to use, copy, modify, merge, publish, distribute, sublicense, and/or sell
  - copies of the Software, and to permit persons to whom the Software is
  - furnished to do so, subject to the following conditions:
  -
  - The above copyright notice and this permission notice shall be included in all
  - copies or substantial portions of the Software.
  -
  - THE SOFTWARE IS PROVIDED "AS IS", WITHOUT WARRANTY OF ANY KIND, EXPRESS OR
  - IMPLIED, INCLUDING BUT NOT LIMITED TO THE WARRANTIES OF MERCHANTABILITY,
  - FITNESS FOR A PARTICULAR PURPOSE AND NONINFRINGEMENT. IN NO EVENT SHALL THE
  - AUTHORS OR COPYRIGHT HOLDERS BE LIABLE FOR ANY CLAIM, DAMAGES OR OTHER
  - LIABILITY, WHETHER IN AN ACTION OF CONTRACT, TORT OR OTHERWISE, ARISING FROM,
  - OUT OF OR IN CONNECTION WITH THE SOFTWARE OR THE USE OR OTHER DEALINGS IN THE
  - SOFTWARE.
  -->

<svg data-big="true" xmlns="http://www.w3.org/2000/svg" width="16px" height="16px" viewBox="0 0 16 16">
  <path stroke="#A1887F" fill="none" fill-rule="evenodd" stroke-linecap="butt" stroke-miterlimit="1.4142"
        d="M1,5 L15,5 L15,11 L1,11 L1,5 Z M3,7 L3,9 L5,9 L5,7 L3,7 Z M7,7 L7,9 L9,9 L9,7 L7,7 Z M11,7 L11,9 L13,9 L13,7 L11,7 Z"/>
</svg>
